X: 1
T: Dorshei Tzedek "Shabbat Unplugged" Klezmer tunes
T: Presented by Terry Traub, May 9, 2015
T: http://terrytraub.org/DorsheiKlez.pdf
P: Der Gasn Nigun (hora / processional)
R: horra
%%composerspace 2cm
C: from John Chambers / Compleat Klezmer
B: The Compleat Klezmer p.47
M: 3/8
L: 1/16
K: Dm
|: A,DE | "Gm"FG3 G2 | TG4 F2 | "Dm"FD- D4- | D2 zA,DE | "Gm"FG3 G2 | "C7"TG3F AG | "F"F3C "C"AC | F2z2 C2 |
"Fm"C3F EF |G3_A =Bc | "G"d3_e dc | T=B3_A GF | "Dm"F3E "Gm"GE | "Dm"F3D "Cm"(3_EDC | "Dm"D3d AF | D2z :|
|: A,DF | "Dm"A6- | A3A (3c=BA | ^G=B A4- | A3D FA | "Dm"c3=B (3cBA | c3=B (3cBA | ^G=B A4- | A3 A,DF |
"Dm"A3^G (3AGF | A3^G (3AGF | E=G F4- | F3 A,DE | "Dm"F3E (3FED | F3E (3FED | ^CE D4- | D2z :|

